X: 8357
T: Counting The Coppers
R: reel
M: 4/4
K: Dmajor
B|ADFA ~B3d|ADFA Bcdc|BE~E2 BEdE|BABc dBAF|
ADFA ~B3d|ADFA defg|afge fdec|Aceg fdd:|
|:e|fd~d2 adbd|ad~d2 fgaf|eA~A2 eAfA|edcd efge|
fd~d2 adbd|ad~d2 fgaf|gfec Acef|geAc edd:|

